X:1
T:OLD FOLKS
T:OLD FOLKS
T:Stephen Foster 1851
C:Stephen Foster 1851
L:1/8
M:4/4
K:G
V:1 treble 
V:1
|: B4 A>GB>A | G2 g2 (e g3) | d4 (B2 G2) | Adfe dcBA | B2 B2 A>GB>A | G>Bd>g e2 g2 | %6
 d2 B>G A>GB>A | G2 [Bg]2 [Bg]2 z :: f3 g a2 f2 | d>^cd>e d2 g2 | g2 e2 c2 e2 | %11
 d>fa>g (3fed (3cBA | B2 B2 A>GB>A | G>Bd>g e2 g2 | d2 B>G A>GB>A | G2 [Bg]2 [Bg]2 z :| %16

